svg/fluentui-system-icons/ic_fluent_box_multiple_24_filled.svg

<svg width="24" height="24" viewBox="0 0 24 24" fill="none" xmlns="http://www.w3.org/2000/svg">
<path d="M16.2999 2.33017C15.461 2.02015 14.539 2.02015 13.7001 2.33017L9.39337 3.92175C8.70625 4.17569 8.25 4.83071 8.25 5.56325V8.35645C9.05071 8.22843 9.87632 8.30674 10.6466 8.59139L14.9533 10.183C16.033 10.582 16.75 11.6113 16.75 12.7625V18.4325C16.75 18.7547 16.6938 19.0674 16.5892 19.3594L20.6066 17.8748C21.2937 17.6208 21.75 16.9658 21.75 16.2333V5.56325C21.75 4.83071 21.2937 4.17569 20.6066 3.92175L16.2999 2.33017ZM11.7692 7.20808C11.3777 7.07275 11.1701 6.64569 11.3054 6.25421C11.4407 5.86272 11.8678 5.65506 12.2593 5.79038L14.9178 6.70934C14.9708 6.72765 15.0284 6.72763 15.0813 6.70928L17.7318 5.79088C18.1232 5.65526 18.5504 5.8626 18.686 6.25398C18.8216 6.64536 18.6143 7.07258 18.2229 7.2082L15.5725 8.1266C15.2017 8.25506 14.7986 8.25521 14.4278 8.12703L11.7692 7.20808ZM7.70008 9.52939C8.53897 9.21937 9.46103 9.21937 10.2999 9.52939L14.6066 11.121C15.2937 11.3749 15.75 12.0299 15.75 12.7625V18.4325C15.75 19.165 15.2937 19.8201 14.6066 20.074L10.2999 21.6656C9.46103 21.9756 8.53897 21.9756 7.70008 21.6656L3.39337 20.074C2.70625 19.8201 2.25 19.165 2.25 18.4325V12.7625C2.25 12.0299 2.70625 11.3749 3.39337 11.121L7.70008 9.52939ZM5.30538 13.7132C5.17006 14.1047 5.37772 14.5317 5.76921 14.6671L8.24989 15.5245V18.2234C8.24989 18.6376 8.58567 18.9734 8.99989 18.9734C9.4141 18.9734 9.74989 18.6376 9.74989 18.2234V15.5241L12.2229 14.6672C12.6143 14.5316 12.8216 14.1043 12.686 13.713C12.5504 13.3216 12.1232 13.1142 11.7318 13.2499L8.99959 14.1966L6.25925 13.2494C5.86776 13.114 5.4407 13.3217 5.30538 13.7132Z" fill="#212121"/>
</svg>

<svg xmlns="http://www.w3.org/2000/svg" width="24" height="24"><path d="M16.3 2.33a3.75 3.75 0 0 0-2.6 0L9.393 3.922A1.75 1.75 0 0 0 8.25 5.563v2.793a4.75 4.75 0 0 1 2.397.235l4.306 1.592a2.75 2.75 0 0 1 1.797 2.58v5.67c0 .322-.056.634-.16.926l4.017-1.484a1.75 1.75 0 0 0 1.143-1.642V5.563a1.75 1.75 0 0 0-1.143-1.641L16.3 2.33Zm-4.53 4.878a.75.75 0 1 1 .49-1.418l2.658.92a.25.25 0 0 0 .163 0l2.65-.92a.75.75 0 1 1 .492 1.418l-2.65.919a1.75 1.75 0 0 1-1.145 0l-2.659-.919ZM7.7 9.53a3.75 3.75 0 0 1 2.6 0l4.307 1.592a1.75 1.75 0 0 1 1.143 1.641v5.67a1.75 1.75 0 0 1-1.143 1.642L10.3 21.666a3.75 3.75 0 0 1-2.6 0l-4.307-1.592a1.75 1.75 0 0 1-1.143-1.642v-5.67a1.75 1.75 0 0 1 1.143-1.641L7.7 9.529Zm-2.395 4.184a.75.75 0 0 0 .464.954l2.48.857v2.7a.75.75 0 0 0 1.5 0v-2.7l2.474-.857a.75.75 0 0 0-.491-1.417L9 14.197l-2.74-.948a.75.75 0 0 0-.955.464Z"/></svg>
